;FLAVOR:Marlin
;TIME:1745
;Filament used: 145.698m
;Layer height: 2.7
;MINX:62.557
;MINY:62.205
;MINZ:6
;MAXX:172.582
;MAXY:172.869
;MAXZ:201.915
;Generated with Cura_SteamEngine 5.4.0
M82 ;absolute extrusion mode
;HEADER;
G21; Set to metric [change to G20 if you want Imperial]
G91;Force coordinates to be absolute relative to the origin 
G1 Z10 F1000;
G90; Force coordinates to be absolute relative to the origin
G28 X; Home X axis
G28 Y; Home Y axis
G28 Z; Home Z axis
M302 P1; Disable Cold Extrusion Checking
G92 E0; Reset extruder to [0] zero end of cleaning run
G91; Force coordinates to be absolute relative to the origin
G1 Z10 F1000;
G90;
T0;
M117 Printing...;ENDHEADER
G92 E0
;LAYER_COUNT:73
;LAYER:0
M106 S25.5
;MESH:myceliumvase0.stl
G0 F1500 X87.37 Y141.488 Z6
;TYPE:WALL-INNER
G1 F450 X87.451 Y141.685 E2.65668
G1 X88.058 Y142.692 E17.32187
G1 X88.335 Y143.264 E25.24869
G1 X88.795 Y144.379 E40.2926
G1 X88.994 Y144.976 E48.14149
G1 X89.278 Y146.163 E63.36426
G1 X90.754 Y146.598 E82.5566
G1 X92.551 Y147.315 E106.688
G1 X94.223 Y148.143 E129.95914
G1 X95.615 Y148.922 E149.85474
G1 X96.72 Y149.577 E165.87626
G1 X100.051 Y151.586 E214.39375
G1 X101.381 Y152.469 E234.30531
G1 X101.806 Y152.797 E241.00121
G1 X102.923 Y153.725 E259.11379
G1 X103.466 Y154.244 E268.48241
G1 X104.747 Y155.684 E292.52101
G1 X105.116 Y156.158 E300.01323
G1 X105.954 Y157.303 E317.7105
G1 X106.418 Y157.91 E327.23993
G1 X106.894 Y157.915 E333.17719
G1 X107.295 Y157.854 E338.23622
G1 X107.767 Y157.709 E344.39479
G1 X109.262 Y157.054 E364.75239
G1 X111.251 Y156.343 E391.09766
G1 X111.744 Y156.205 E397.48298
G1 X112.351 Y156.075 E405.2255
G1 X113.722 Y155.908 E422.45176
G1 X114.362 Y155.898 E430.43517
G1 X114.903 Y155.925 E437.19121
G1 X116.026 Y156.052 E451.28717
G1 X116.93 Y156.227 E462.77168
G1 X117.613 Y156.464 E471.78872
G1 X118.664 Y156.863 E485.81023
G1 X119.342 Y157.211 E495.3155
G1 X120.236 Y157.746 E508.31008
G1 X120.86 Y158.164 E517.67779
G1 X121.638 Y158.748 E529.81109
G1 X122.525 Y158.599 E541.02924
G1 X124.35 Y158.361 E563.98439
G1 X127.466 Y158.205 E602.89753
G1 X128.426 Y158.105 E614.93597
G1 X129.059 Y157.929 E623.13059
G1 X129.427 Y157.683 E628.65158
G1 X130.408 Y156.848 E644.71933
G1 X131.663 Y155.759 E665.44384
G1 X133.069 Y154.68 E687.54904
G1 X133.498 Y154.382 E694.06403
G1 X134.881 Y153.517 E714.40963
G1 X135.466 Y153.201 E722.70253
G1 X137.138 Y152.391 E745.87492
G1 X139.164 Y151.662 E772.73037
G1 X140.351 Y151.273 E788.31003
G1 X140.913 Y151.041 E795.89338
G1 X141.298 Y150.806 E801.51918
G1 X141.983 Y150.249 E812.53092
G1 X145.267 Y147.228 E868.18575
G1 X146.476 Y146.164 E888.27306
G1 X146.993 Y145.69 E897.02133
G1 X147.184 Y144.127 E916.66094
G1 X147.27 Y143.556 E923.86309
G1 X147.769 Y141.487 E950.40872
G1 X148.048 Y140.664 E961.24743
G1 X148.679 Y139.342 E979.5181
G1 X149.071 Y138.675 E989.16764
G1 X149.928 Y137.435 E1007.96791
G1 X150.082 Y137.284 E1010.65797
G1 X150.855 Y136.433 E1024.99722
G1 X151.272 Y136.027 E1032.25626
G1 X152.217 Y135.214 E1047.80445
G1 X152.651 Y134.895 E1054.52248
G1 X154.349 Y133.773 E1079.90677
G1 X154.366 Y133.245 E1086.49568
G1 X154.406 Y132.672 E1093.65985
G1 X154.478 Y132.169 E1099.99749
G1 X154.687 Y131.122 E1113.31389
G1 X154.856 Y130.46 E1121.83552
G1 X155.35 Y129.084 E1140.07025
G1 X156.009 Y127.683 E1159.3809
G1 X155.931 Y126.866 E1169.61731
G1 X155.808 Y125.168 E1190.85119
G1 X155.786 Y124.354 E1201.00755
G1 X156.002 Y122.226 E1227.68552
G1 X156.132 Y121.484 E1237.08112
G1 X156.478 Y119.968 E1256.47572
G1 X156.776 Y118.761 E1271.98213
G1 X156.9 Y118.027 E1281.2667
G1 X156.922 Y117.582 E1286.82377
G1 X156.864 Y117.024 E1293.82095
G1 X156.539 Y115.465 E1313.68368
G1 X156.33 Y113.41 E1339.44699
G1 X156.31 Y112.453 E1351.38582
G1 X156.45 Y111.14 E1367.85511
G1 X156.587 Y110.339 E1377.9907
G1 X157.065 Y108.707 E1399.20103
G1 X157.405 Y107.918 E1409.9167
G1 X156.953 Y107.113 E1421.43156
G1 X156.37 Y105.88 E1438.44267
G1 X155.961 Y104.71 E1453.90149
G1 X155.768 Y104.032 E1462.69383
G1 X155.356 Y101.996 E1488.60265
G1 X155.13 Y100.056 E1512.96303
G1 X155.036 Y99.417 E1521.01877
G1 X153.533 Y98.033 E1546.50207
G1 X153.02 Y97.49 E1555.81914
G1 X152.236 Y96.482 E1571.74654
G1 X151.902 Y95.993 E1579.13253
G1 X151.631 Y95.522 E1585.9101
G1 X151.112 Y94.451 E1600.75402
G1 X150.84 Y93.786 E1609.71526
G1 X150.647 Y93.175 E1617.70714
G1 X150.345 Y91.794 E1635.33878
G1 X149.63 Y91.324 E1646.01083
G1 X148.895 Y90.78 E1657.41596
G1 X148.293 Y90.273 E1667.23252
G1 X147.393 Y89.33 E1683.49114
G1 X146.867 Y88.68 E1693.92028
G1 X146.223 Y87.718 E1708.35927
G1 X145.929 Y87.221 E1715.56151
G1 X145.372 Y86.125 E1730.89547
G1 X144.863 Y84.93 E1747.0959
G1 X143.939 Y84.73 E1758.88741
G1 X141.802 Y84.099 E1786.6789
G1 X140.983 Y83.742 E1797.8222
G1 X139.788 Y83.059 E1814.98959
G1 X139.358 Y82.778 E1821.39642
G1 X138.749 Y82.317 E1830.92305
G1 X137.612 Y81.185 E1850.93437
G1 X137.279 Y80.804 E1857.24565
G1 X136.858 Y80.237 E1866.05387
G1 X136.321 Y79.39 E1878.5624
G1 X135.996 Y78.824 E1886.70289
G1 X135.371 Y77.509 E1904.86255
G1 X134.054 Y77.746 E1921.55276
G1 X131.817 Y77.958 E1949.57887
G1 X131.074 Y77.976 E1958.84869
G1 X129.162 Y77.846 E1982.75127
G1 X128.349 Y77.735 E1992.98552
G1 X127.519 Y77.566 E2003.55016
G1 X126.712 Y77.424 E2013.77014
G1 X124.983 Y76.98 E2036.03487
G1 X123.409 Y76.507 E2056.53394
G1 X121.683 Y75.883 E2079.42524
G1 X119.888 Y75.082 E2103.94142
G1 X117.128 Y73.639 E2142.78665
G1 X116.579 Y73.403 E2150.23995
G1 X114.651 Y74.284 E2176.67865
G1 X113.003 Y74.834 E2198.34791
G1 X111.669 Y75.069 E2215.24249
G1 X110.852 Y75.171 E2225.51167
G1 X109.283 Y75.157 E2245.08188
G1 X108.442 Y75.06 E2255.64084
G1 X107.746 Y75.863 E2268.89479
G1 X107.366 Y76.248 E2275.6418
G1 X106.047 Y77.492 E2298.25566
G1 X105.585 Y77.861 E2305.63035
G1 X104.157 Y78.925 E2327.84158
G1 X102.651 Y79.893 E2350.17079
G1 X101.237 Y80.727 E2370.64612
G1 X99.834 Y81.489 E2390.55948
G1 X98.513 Y82.137 E2408.91129
G1 X96.831 Y82.856 E2431.72646
G1 X94.863 Y83.511 E2457.59625
G1 X92.868 Y83.945 E2483.06098
G1 X92.284 Y84.027 E2490.4164
G1 X90.754 Y84.18 E2509.59458
G1 X90.111 Y84.221 E2517.63071
G1 X89.841 Y85.325 E2531.80623
G1 X89.586 Y86.461 E2546.32762
G1 X88.889 Y88.487 E2573.05058
G1 X88.584 Y89.23 E2583.0681
G1 X87.955 Y90.313 E2598.68884
G1 X87.475 Y91.175 E2610.99467
G1 X87.136 Y91.654 E2618.31386
G1 X86.1 Y93.017 E2639.6673
G1 X85.279 Y94.034 E2655.96932
G1 X84.696 Y94.818 E2668.1551
G1 X84.261 Y95.485 E2678.08715
G1 X83.794 Y96.356 E2690.41373
G1 X83.07 Y97.81 E2710.67267
G1 X82.805 Y98.265 E2717.24003
G1 X81.56 Y100.095 E2744.84617
G1 X80.955 Y100.767 E2756.12407
G1 X80.077 Y101.62 E2771.39208
G1 X79.667 Y101.967 E2778.09147
G1 X78.683 Y102.683 E2793.26966
G1 X78.228 Y102.985 E2800.08096
G1 X77.206 Y103.584 E2814.85598
G1 X77.162 Y104.729 E2829.1476
G1 X77.015 Y106.626 E2852.87896
G1 X76.843 Y107.596 E2865.16606
G1 X76.668 Y108.722 E2879.37875
G1 X76.235 Y110.432 E2901.37995
G1 X76.067 Y111.202 E2911.20975
G1 X76.049 Y111.51 E2915.05785
G1 X76.088 Y111.883 E2919.73547
G1 X76.242 Y112.517 E2927.873
G1 X76.738 Y113.917 E2946.39806
G1 X76.888 Y114.437 E2953.14824
G1 X77.056 Y115.337 E2964.56743
G1 X77.107 Y115.99 E2972.73681
G1 X77.125 Y116.123 E2974.41078
G1 X77.099 Y116.699 E2981.60228
G1 X77.049 Y117.225 E2988.19242
G1 X76.928 Y117.907 E2996.83154
G1 X76.683 Y118.756 E3007.85283
G1 X76.345 Y119.561 E3018.74237
G1 X75.923 Y120.307 E3029.43244
G1 X75.074 Y121.585 E3048.56911
G1 X76.124 Y123.333 E3074.00212
G1 X76.629 Y124.458 E3089.3826
G1 X77.108 Y125.482 E3103.48274
G1 X77.4 Y126.356 E3114.97605
G1 X77.757 Y127.988 E3135.81257
G1 X77.823 Y128.845 E3146.5332
G1 X77.853 Y129.828 E3158.79943
G1 X77.823 Y130.596 E3168.38565
G1 X77.535 Y133.036 E3199.02993
G1 X78.33 Y134.504 E3219.85218
G1 X78.991 Y135.963 E3239.83008
G1 X81.889 Y137.039 E3278.38657
G1 X82.528 Y137.369 E3287.35659
G1 X84.165 Y138.342 E3311.10852
G1 X84.759 Y138.751 E3320.10362
G1 X85.909 Y139.775 E3339.30922
G1 X86.36 Y140.268 E3347.643
G1 X87.37 Y141.488 E3367.39733
G0 F1500 X83.2 Y144.294
;TYPE:WALL-OUTER
G1 F450 X83.225 Y144.357 E3368.24271
G1 X83.704 Y145.155 E3379.85119
G1 X84.138 Y146.184 E3393.78029
G1 X84.589 Y148.049 E3417.71207
G1 X84.894 Y149.534 E3436.62043
G1 X85.101 Y150.083 E3443.93843
G1 X85.223 Y150.187 E3445.93793
G1 X86.184 Y150.539 E3458.70281
G1 X87.523 Y150.862 E3475.88259
G1 X89.171 Y151.348 E3497.31253
G1 X90.606 Y151.929 E3516.62198
G1 X91.907 Y152.575 E3534.73905
G1 X93.065 Y153.223 E3551.28983
G1 X94.141 Y153.861 E3566.89209
G1 X97.369 Y155.807 E3613.90368
G1 X98.473 Y156.537 E3630.4114
G1 X99.756 Y157.592 E3651.12903
G1 X100.915 Y158.896 E3672.88889
G1 X101.943 Y160.289 E3694.48202
G1 X102.773 Y161.374 E3711.52029
G1 X103.482 Y162.07 E3723.91211
G1 X104.209 Y162.5 E3734.44702
G1 X105.062 Y162.772 E3745.61391
G1 X106.167 Y162.921 E3759.52081
G1 X107.29 Y162.912 E3773.52793
G1 X108.411 Y162.742 E3787.66952
G1 X109.523 Y162.4 E3802.18013
G1 X111.083 Y161.711 E3823.45057
G1 X112.821 Y161.094 E3846.45333
G1 X113.112 Y161.023 E3850.18931
G1 X114.245 Y160.88 E3864.43282
G1 X115.306 Y161 E3877.75057
G1 X115.663 Y161.078 E3882.30831
G1 X116.743 Y161.482 E3896.69028
G1 X117.765 Y162.094 E3911.54795
G1 X119.185 Y163.159 E3933.68673
G1 X120.269 Y163.861 E3949.79448
G1 X120.647 Y163.952 E3954.6438
G1 X121.676 Y163.859 E3967.53037
G1 X123.007 Y163.585 E3984.47945
G1 X124.758 Y163.348 E4006.51802
G1 X127.85 Y163.193 E4045.13158
G1 X129.238 Y163.047 E4062.53898
G1 X130.397 Y162.786 E4077.35668
G1 X131.425 Y162.361 E4091.23101
G1 X132.445 Y161.681 E4106.52095
G1 X133.696 Y160.615 E4127.02059
G1 X134.809 Y159.645 E4145.43469
G1 X136.176 Y158.605 E4166.85805
G92 E0
G1 X137.529 Y157.757 E19.91595
G1 X139.128 Y156.984 E42.06774
G1 X140.657 Y156.435 E62.33032
G1 X142.081 Y155.967 E81.02584
G1 X143.18 Y155.516 E95.84248
G1 X144.192 Y154.898 E110.63215
G1 X145.257 Y154.032 E127.75266
G1 X148.635 Y150.925 E184.99655
G1 X149.801 Y149.899 E204.36812
G1 X150.791 Y148.994 E221.09773
G1 X151.488 Y148.135 E234.89493
G1 X151.737 Y147.546 E242.87076
G1 X151.966 Y146.224 E259.60502
G1 X152.17 Y144.579 E280.27953
G1 X152.57 Y142.906 E301.73424
G1 X152.688 Y142.55 E306.41203
G1 X153.156 Y141.561 E320.05876
G1 X153.833 Y140.583 E334.89435
G1 X154.55 Y139.801 E348.12709
G1 X155.37 Y139.092 E361.64748
G1 X157.004 Y138.009 E386.09764
G1 X158.444 Y137.143 E407.05581
G1 X158.894 Y136.81 E414.03809
G1 X159.122 Y136.584 E418.04215
G1 X159.228 Y136.35 E421.24621
G1 X159.311 Y135.031 E437.73004
G1 X159.371 Y133.19 E460.7042
G1 X159.612 Y132.007 E475.76229
G1 X159.974 Y130.994 E489.1795
G1 X160.636 Y129.596 E508.47227
G1 X160.883 Y129.031 E516.16323
G1 X161.007 Y128.624 E521.46993
G1 X161.052 Y128.301 E525.53748
G1 X161.05 Y127.85 E531.16265
G1 X160.918 Y126.504 E548.03124
G1 X160.784 Y124.612 E571.68842
G1 X160.983 Y122.716 E595.46627
G1 X161.333 Y121.166 E615.28547
G1 X161.676 Y119.777 E633.13024
G1 X161.88 Y118.567 E648.43501
G1 X161.935 Y117.443 E662.47093
G1 X161.809 Y116.241 E677.54508
G1 X161.496 Y114.77 E696.30294
G1 X161.296 Y112.84 E720.50387
G1 X161.432 Y111.58 E736.31056
G1 X161.785 Y110.392 E751.76824
G1 X162.549 Y108.623 E775.80196
G1 X162.808 Y107.997 E784.25166
G1 X162.921 Y107.593 E789.48397
G1 X162.914 Y107.399 E791.90522
G1 X162.36 Y106.36 E806.59128
G1 X161.429 Y104.875 E828.45202
G1 X160.983 Y103.931 E841.47406
G1 X160.647 Y102.951 E854.39562
G1 X160.298 Y101.208 E876.56678
G1 X160.093 Y99.438 E898.79077
G1 X159.908 Y98.174 E914.72404
G1 X159.586 Y97.075 E929.00762
G1 X159.437 Y96.778 E933.15199
G1 X159.246 Y96.512 E937.23639
G1 X158.238 Y95.565 E954.48676
G1 X156.931 Y94.368 E976.59189
G1 X156.121 Y93.333 E992.98429
G1 X155.633 Y92.315 E1007.06484
G1 X155.504 Y91.959 E1011.78759
G1 X155.128 Y90.263 E1033.45465
G1 X154.827 Y88.82 E1051.83992
G1 X154.758 Y88.688 E1053.69766
G1 X153.991 Y88.14 E1065.45494
G1 X152.71 Y87.384 E1084.00719
G1 X151.813 Y86.718 E1097.94169
G1 X150.993 Y85.859 E1112.7535
G1 X150.347 Y84.879 E1127.3933
G1 X149.899 Y83.992 E1139.78748
G1 X149.285 Y82.552 E1159.31248
G1 X148.778 Y81.61 E1172.65527
G1 X148.235 Y80.996 E1182.87854
G1 X147.567 Y80.541 E1192.95933
G1 X146.595 Y80.184 E1205.8745
G1 X145.179 Y79.889 E1223.91483
G1 X143.358 Y79.344 E1247.62274
G1 X142.354 Y78.767 E1262.06585
G1 X142.024 Y78.531 E1267.12602
G1 X141.128 Y77.633 E1282.94807
G1 X140.476 Y76.606 E1298.12073
G1 X139.979 Y75.544 E1312.74531
G1 X139.383 Y74.054 E1332.761
G1 X138.859 Y73.012 E1347.30819
G1 X138.648 Y72.753 E1351.47488
G1 X138.412 Y72.565 E1355.2382
G1 X138.134 Y72.425 E1359.12043
G1 X137.781 Y72.32 E1363.71389
G1 X137.296 Y72.256 E1369.81551
G1 X136.763 Y72.255 E1376.46339
G1 X135.176 Y72.462 E1396.425
G1 X133.329 Y72.795 E1419.83322
G1 X131.322 Y72.981 E1444.9729
G1 X129.441 Y72.854 E1468.48718
G1 X127.771 Y72.532 E1489.69999
G1 X126.395 Y72.182 E1507.40871
G1 X124.981 Y71.761 E1525.81
G1 X123.49 Y71.219 E1545.59716
G1 X122.085 Y70.59 E1564.79706
G1 X119.279 Y69.121 E1604.30099
G1 X118.138 Y68.631 E1619.78897
G1 X117.121 Y68.361 E1632.91297
G1 X116.145 Y68.302 E1645.1084
G1 X115.434 Y68.448 E1654.16142
G1 X114.211 Y68.981 E1670.80102
G1 X112.756 Y69.649 E1690.76976
G1 X111.78 Y69.969 E1703.58057
G1 X110.681 Y70.166 E1717.50639
G1 X109.529 Y70.157 E1731.8752
G1 X108.46 Y70.014 E1745.32713
G1 X107.078 Y69.774 E1762.82218
G1 X106.749 Y69.756 E1766.93179
G1 X106.509 Y69.831 E1770.06796
G1 X106.239 Y70.04 E1774.32658
G1 X105.215 Y71.143 E1793.09843
G1 X104.014 Y72.533 E1816.01028
G1 X102.694 Y73.779 E1838.65033
G1 X101.245 Y74.858 E1861.18337
G1 X100.083 Y75.603 E1878.39942
G1 X98.838 Y76.34 E1896.44455
G1 X97.577 Y77.027 E1914.35511
G1 X96.295 Y77.653 E1932.14938
G1 X95.009 Y78.195 E1949.55544
G1 X93.544 Y78.684 E1968.81876
G1 X91.89 Y79.039 E1989.91817
G1 X90.133 Y79.214 E2011.94088
G1 X88.634 Y79.289 E2030.66062
G1 X87.37 Y79.445 E2046.54553
G1 X86.811 Y79.651 E2053.97605
G1 X86.452 Y79.964 E2059.91657
G1 X85.949 Y80.771 E2071.77703
G1 X85.527 Y81.912 E2086.95036
G1 X84.973 Y84.179 E2116.05768
G1 X84.754 Y85.146 E2128.42408
G1 X84.141 Y86.919 E2151.82232
G1 X83.204 Y88.566 E2175.45634
G1 X82.18 Y89.913 E2196.56034
G1 X81.327 Y90.97 E2213.50125
G1 X80.592 Y91.958 E2228.86006
G1 X79.955 Y92.935 E2243.40702
G1 X79.348 Y94.066 E2259.4167
G1 X78.62 Y95.535 E2279.86539
G1 X77.541 Y97.112 E2303.69798
G1 X76.646 Y97.98 E2319.24845
G1 X75.677 Y98.686 E2334.20198
G1 X73.845 Y99.759 E2360.68245
G1 X73.256 Y100.12 E2369.29882
G1 X72.802 Y100.461 E2376.38074
G1 X72.606 Y100.666 E2379.91822
G1 X72.404 Y101.103 E2385.92286
G1 X72.325 Y101.481 E2390.73934
G1 X72.233 Y102.656 E2405.43944
G1 X72.18 Y104.291 E2425.84278
G1 X72.037 Y106.07 E2448.10301
G1 X71.757 Y107.751 E2469.35823
G1 X71.368 Y109.28 E2489.03627
G1 X71.098 Y110.522 E2504.889
G1 X71.033 Y111.632 E2518.75725
G1 X71.152 Y112.74 E2532.65631
G1 X71.444 Y113.947 E2548.14495
G1 X72.004 Y115.528 E2569.06451
G1 X72.116 Y116.211 E2577.69704
G1 X72.088 Y116.601 E2582.57386
G1 X71.996 Y117.008 E2587.77826
G1 X71.774 Y117.518 E2594.71578
G1 X70.7 Y119.133 E2618.90642
G1 X70.039 Y120.467 E2637.47535
G1 X69.87 Y120.98 E2644.21203
G1 X69.783 Y121.41 E2649.6839
G1 X69.762 Y121.809 E2654.66733
G1 X69.794 Y122.122 E2658.59159
G1 X69.902 Y122.525 E2663.7954
G1 X70.06 Y122.892 E2668.779
G1 X70.803 Y124.188 E2687.41145
G1 X71.688 Y125.656 E2708.79105
G1 X72.458 Y127.341 E2731.89769
G1 X72.571 Y127.676 E2736.30729
G1 X72.813 Y128.764 E2750.20906
G1 X72.857 Y130.004 E2765.68475
G1 X72.633 Y131.865 E2789.06371
G1 X72.456 Y133.457 E2809.04236
G1 X72.481 Y133.846 E2813.90419
G1 X72.565 Y134.187 E2818.28447
G1 X73.089 Y135.339 E2834.06942
G1 X73.819 Y136.674 E2853.04707
G1 X74.525 Y138.222 E2874.26779
G1 X75.067 Y139.347 E2889.84295
G1 X75.458 Y139.846 E2897.74981
G1 X75.755 Y140.057 E2902.29383
G1 X76.241 Y140.295 E2909.04331
G1 X77.218 Y140.639 E2921.96228
G1 X79.944 Y141.647 E2958.21246
G1 X81.613 Y142.64 E2982.43494
G1 X82.477 Y143.417 E2996.92794
G1 X83.2 Y144.294 E3011.10423
G0 F1500 X83.225 Y144.357
G0 X83.704 Y145.155
G0 X83.899 Y145.618
G0 X119.459 Y118.768
;TYPE:SKIN
